X:1
T:Ipse est qui post me - Cardoso
T:James Gibb editions
T:#
%%score [ 1 2 3 4 ]
L:1/8
Q:1/4=100
M:4/4
K:Bb
V:1 treble nm="Soprano" snm="S"
V:2 treble nm="Alto" snm="A"
V:3 treble-8 nm="Tenor" snm="T"
V:4 bass nm="Bass" snm="B"
V:1
"^John 1:27""^Ipse est qui post me" z8 | z4 c4- | c2 c2 d4 | =B2 B2 c4 | %4
w: |Ip\-|* se est|qui post me|
"^Manuel Cardoso\n(1566-1650)" A4 (d3 c |[M:4/4] B2 A2 G4 | z2 A4 (d2- | dc B4 AG | AB c4 BA | %9
w: ven- tu\- *|* rus est,|ven- tu\-|||
 B2) B2 A2 c2- | c2 c2 d4 | =B2 B2 c4 | z2 f4 f2 | g4 =e2 e2 | f4 z2 d2 | g3 f ed c2- | %16
w: * rus est, ip\-|* se est|qui post me,|ip- se|est qui post|me ven-|tu\- * * * *|
 c2) =B2 c4 | z4 z2 c2 | c2 d2 e2 (e2- | e2 dc BG c2 | B3 c dc c2- | c2) =B2 c4 | z2 G2 G2 A2 | %23
w: * rus est,|qui|an- te me fac\-|||* tus est,|qui an- te|
 B2 (B4 AG | F3 G A2) G2 | G4 z4 | z2 B2 B2 c2 | d2 (d4 cB | c2) d2 B4 | z2 B4 A2 | G4 F2 f2- | %31
w: me fac\- * *|* * * tus|est,|qui an- te|me fac\- * *|* tus est,|cu- ius|e- go non|
 f2 e2 d4 | c4 B2 c2 | d4 c2 A2 | B6 A2 | G4 z2 F2 | c2 c2 B2 B2- | B2 A2 G4- | G2 _A2 G4- | %39
w: * sum di-|gnus, cu- ius|e- go non|sum di-|gnus, ut|sol- vam e- ius|* cor- ri\-|* gi- am|
 G4 z2 c2- | cc (=B2[Q:1/4=99] c[Q:1/4=98]_B[Q:1/4=97]A[Q:1/4=96]G | %41
w: * cal\-|* ce- a- men\- * * *|
[Q:1/4=95] A2[Q:1/4=94] G[Q:1/4=93]F[Q:1/4=91] c4- |[Q:1/4=86] c8) |[Q:1/4=84] A8 |] %44
w: ||ti.|
V:2
 F6 F2 | G4 =E2 E2 | F4 z2 D2 | (G3 F =ED/E/ F2- | FEDC B,G, G2- |[M:4/4] G=E F4) E2 | F4 z4 | %7
w: Ip- se|est qui post|me ven-|tu\- * * * * *||* * * rus|est,|
 D4 (G4 | F3) F F2 F2 | G2 E2 F4- | F4 z4 | z4 z2 C2- | C2 C2 D4 | =B,2 B,2 C4 | A,4 B,3 B, | %15
w: ven- tu\-|* rus est, ven-|tu- rus est||ip\-|* se est|qui post me|ven- tu- rus|
 G,2 G4 E2 | G2 G2 (GFED | CB, B,4 A,G, | A,3 =B, CDEF | GA B4) A2 | (G2 FE F4) | z2 G2 G2 A2 | %22
w: est, qui post|me ven- tu\- * * *|||* * * rus|est, * * *|qui an- te|
 B2 (B4 AG | F2) G4 F2 | z2 (F4 ED | C2 C4 (B,A, | G,2) G2 G2 A2 | B2 B4 AG | A2) B2 G4 | %29
w: me fac\- * *|* tus est,|fac\- * *|* tus est, *|* qui an- te|me fac\- * *|* tus est,|
 F4 z2 F2- | F2 E4 D2 | C2 c4 B2 | (A4 G4) | F2 (G4 F2- | F2) E2 D2 C2 | z8 | z4 z2 B,2 | %37
w: * cu\-|* ius e-|go non sum|di\- *|gnus, non *|* sum di- gnus,||ut|
 F2 F2 E2 E2- | E2 F2 E2 D2 | C2 G3 G A2 | G4 G2 C2- | CC D2 (=E2 F2- | F2 =ED E4) | F8 |] %44
w: sol- vam e- ius|* cor- ri- gi-|am cal- ce- a-|men- ti, cal\-|* ce- a- men\- *||ti.|
V:3
 z8 | z8 | z8 | z8 | z8 |[M:4/4][K:treble-8] z4 c4- | c2 c2 d4 | B2 B2 c4 | z2 A2 (d4- | %9
w: |||||Ip\-|* se est|qui post me|ven- tu\-|
 d2 cB c2) c2 | F2 f4 f2 | g4 =e2 e2 | f4 z2 d2- | d2 g4 g2 | f8 | z2 d2 (g3 f | e2) d2 e2 g2 | %17
w: * * * * rus|est, ip- se|est qui post|me ven\-|* tu- rus|est,|ven- tu\- *|* rus est, ven-|
 (f2 ed c2) c2 | F4 z2 c2 | c2 d2 e2 (e2- | e2 dc B2) c2 | d4 z2 e2 | d2 d2 c4 | (d2 cB c4- | %24
w: tu\- * * * rus|est, qui|an- te me fac\-|* * * * tus|est, qui|an- te me|fac\- * * *|
 c2) =B2 c4 | e4 e2 f2 | g4 (e4 | f6) f2 | f4 z2 e2- | e2 d2 c4 | B4 c2 B2 | A2 G2 z2 (g2- | %32
w: * tus est,|qui an- te|me fac\-|* tus|est, cu\-|* ius e-|go non sum|di- gnus, non|
 g2 f4) e2 | d2 G2 c4 | z2 B2 f2 f2 | e4 d4 | c2 f4 e2 | (d2 cB c4- | c2) F2 G3 G | c2 e3 e f2 | %40
w: * * sum|di- * gnus,|ut sol- vam|e- ius|cor- ri- gi-|am, * * *|* cor- ri- gi-|am cal- ce- a-|
 (d4 c4) | F2 B3 B A2 | G8 | F8 |] %44
w: men\- *|ti, cal- ce- a-|men-|ti.|
V:4
 z8 | z8 | z8 | z8 | z8 |[M:4/4] z8 | F,6 F,2 | G,4 =E,2 E,2 | F,4 z2 D,2 | (G,4 F,3 G, | %10
w: ||||||Ip- se|est qui post|me ven-|tu\- * *|
 A,2 A,2 B,4 | z2 G,2 (CB,A,G, | A,4 B,3) B, | G,4 z2 C2- | C2 C2 D4 | =B,2 B,2 C4 | z2 G,2 C3 B, | %17
w: * rus est,|ven- tu\- * * *|* * rus|est, ip\-|* se est|qui post me|ven- tu\- *|
 _A,2 G,F, =E,2) (F,2- | F,_E, D,2) C,4 | z2 G,2 G,2 A,2 | B,2 (B,4 A,G, | ^F,2) G,2 C,2 C2 | %22
w: * * * * rus|* * * est,|qui an- te|me fac\- * *|* tus est, qui|
 (B,A,G,F, =E,2) F,2 | D,2 E,4 F,2 | (D,4 C,4) | z2 C,2 C,2 D,2 | E,2 (E,3 D, C,2 | %27
w: an\- * * * * te|me fac- tus|est, *|qui an- te|me fac\- * *|
 B,,3 C, D,E, F,2- | F,2) D,2 (E,F,G,A, | B,4) F,4 | G,4 A,2 B,2 | F,2 C,2 G,4 | C,4 z2 C2- | %33
w: |* tus est, * * *|* cu-|ius e- go|non sum di-|gnus, non|
 C2 B,2 A,4 | G,4 z2 F,2 | C2 C2 B,4 | A,2 A,2 G,2 G,2 | F,4 z4 | z2 C3 C =B,2 | C6 F,2 | %40
w: * sum di-|gnus, ut|sol- vam e-|ius cor- ri- gi-|am|cal- ce- a-|men- ti,|
 G,3 G, =E,2 (F,2- | F,2 =E,D, C,4- | C,8) | F,8 |] %44
w: cal- ce- a- men\-|||ti.|

